X:042
T:Marchmont House
B:The Gow Collection (New York, 1986)
N:1st note in bar 4 changed from "d".
N:Orig. publ. in Bremner's Coll (1751-61)
Z:Nigel Gatherer
M:6/8
L:1/8
K:D
A|F/G/AF D2A|d>ed dAG|F/G/AF D2f|eEE E2G|
F/G/AF D2A|d>ed dAG|FdF Edc|dAF D2::g|f/g/af d2f|
aba afd|f/g/af d>ef|eEE E2g|f/g/af dfa|bag fed|
B/c/dB AFd|AFD D2::A|FAd FAd|dAF dAF|FAd d>ef|
eEE E2g|FAd FAd|fed cBA|B/c/dB AFd|AFD D2::f|
dfa dfa|afd afd|dfadef|eEE E2f|
dfa dfa|bag fed|B/c/dB AFB|AFD D2:|
<end>
<start>
